dist/gl-ng-frontend/assets/img/icon/label/image.svg

<?xml version="1.0" encoding="UTF-8"?>
<svg enable-background="new 0 0 24 24" version="1.1" viewBox="0 0 24 24" xmlns="http://www.w3.org/2000/svg">
 <style type="text/css">.st0{fill:#FFFFFF;}</style>
 <path class="st0" d="m11.5 15.1c-0.2 0.3-0.7 0.3-0.9 0l-1.7-1.7-1.9 1.9v1.4c0 0.2 0.1 0.3 0.3 0.3h9.5c0.2 0 0.3-0.1 0.3-0.3v-2.6l-2.3-2.3-3.3 3.3z"/>
 <path class="st0" d="m9.7 8c-0.7 0-1.2 0.6-1.2 1.3s0.6 1.3 1.3 1.3 1.2-0.6 1.2-1.3-0.6-1.3-1.3-1.3z"/>
 <path class="st0" d="m16.7 7h-9.4c-0.2 0-0.3 0.1-0.3 0.3v6.2l1.4-1.5c0.1-0.1 0.3-0.2 0.5-0.2s0.3 0.1 0.5 0.2l1.7 1.7 3.3-3.3c0.1-0.1 0.3-0.2 0.5-0.2s0.3 0.1 0.5 0.2l1.8 1.8v-5c-0.2-0.1-0.3-0.2-0.5-0.2zm-7 4.2c-1 0-1.9-0.8-1.9-1.9 0-1 0.8-1.9 1.9-1.9 1 0 1.9 0.8 1.9 1.9 0 1-0.8 1.9-1.9 1.9z"/>
 <path class="st0" d="m12 0c-6.6 0-12 5.4-12 12s5.4 12 12 12 12-5.4 12-12-5.4-12-12-12zm6.3 16.7c0 0.9-0.7 1.6-1.6 1.6h-9.4c-0.9 0-1.6-0.7-1.6-1.6v-9.4c0-0.9 0.7-1.6 1.6-1.6h9.4c0.9 0 1.6 0.7 1.6 1.6v9.4z"/>
</svg>

<?xml version="1.0" encoding="utf-8"?>
<!-- Generator: Adobe Illustrator 23.1.0, SVG Export Plug-In . SVG Version: 6.00 Build 0)  -->
<svg version="1.1" id="Layer_1" xmlns="http://www.w3.org/2000/svg" xmlns:xlink="http://www.w3.org/1999/xlink" x="0px" y="0px"
	 viewBox="0 0 24 24" style="enable-background:new 0 0 24 24;" xml:space="preserve">
<style type="text/css">
	.st0{fill:#FFFFFF;}
</style>
<g>
	<path class="st0" d="M9.7,8C9,8,8.5,8.6,8.5,9.3s0.6,1.3,1.3,1.3S11,10,11,9.3S10.4,8,9.7,8z"/>
	<path class="st0" d="M20.9,0H3.1C1.4,0,0,1.4,0,3.1v17.7C0,22.6,1.4,24,3.1,24h17.7c1.7,0,3.1-1.4,3.1-3.1V3.1
		C24,1.4,22.6,0,20.9,0z M18.3,16.7c0,0.9-0.7,1.6-1.6,1.6H7.3c-0.9,0-1.6-0.7-1.6-1.6V7.3c0-0.9,0.7-1.6,1.6-1.6h9.4
		c0.9,0,1.6,0.7,1.6,1.6V16.7z"/>
	<path class="st0" d="M7.3,7C7.1,7,7,7.1,7,7.3v6.2L8.4,12c0.1-0.1,0.3-0.2,0.5-0.2c0.2,0,0.3,0.1,0.5,0.2l1.7,1.7l3.3-3.3
		c0.1-0.1,0.3-0.2,0.5-0.2c0.2,0,0.3,0.1,0.5,0.2l1.8,1.8v-5C17,7.1,16.9,7,16.7,7H7.3z M9.7,11.2c-1,0-1.9-0.8-1.9-1.9
		c0-1,0.8-1.9,1.9-1.9c1,0,1.9,0.8,1.9,1.9C11.6,10.3,10.8,11.2,9.7,11.2z"/>
	<path class="st0" d="M11.5,15.1c-0.2,0.3-0.7,0.3-0.9,0l-1.7-1.7L7,15.3v1.4C7,16.9,7.1,17,7.3,17h9.5c0.2,0,0.3-0.1,0.3-0.3v-2.6
		l-2.3-2.3L11.5,15.1z"/>
</g>
</svg>
